symbols/web/highlight/materialsymbolsrounded/highlight_wght700_40px.svg

<svg xmlns="http://www.w3.org/2000/svg" height="40" width="40"><path d="M6.708 11.042 5.5 9.833q-.667-.625-.667-1.52 0-.896.625-1.521.625-.667 1.542-.667t1.542.625L9.75 7.958q.625.625.646 1.521.021.896-.646 1.521-.667.667-1.562.646-.896-.021-1.48-.604ZM20 7.833q-.917 0-1.542-.645-.625-.646-.625-1.563V3.917q0-.875.625-1.542T20 1.708q.917 0 1.542.667t.625 1.542v1.708q0 .917-.625 1.563-.625.645-1.542.645Zm10.292 3.209q-.584-.625-.625-1.521-.042-.896.583-1.521l1.208-1.25q.625-.583 1.563-.583.937 0 1.521.625.625.666.625 1.541 0 .875-.625 1.542l-1.167 1.208q-.625.584-1.542.584-.916 0-1.541-.625Zm-12.5 27.625q-1.834 0-3.104-1.271-1.271-1.271-1.271-3.104v-4.875l-3.709-3.75q-.583-.584-.937-1.396-.354-.813-.354-1.688v-6.125q0-.916.645-1.562.646-.646 1.521-.646h18.834q.875 0 1.541.646.667.646.667 1.562v6.125q0 .875-.375 1.688-.375.812-.958 1.396l-3.667 3.75v4.875q0 1.833-1.292 3.104-1.291 1.271-3.125 1.271Zm0-4.375h4.416v-6.75l5-5v-4.334H12.792v4.334l5 5v6.75ZM20 26.25Z"/></svg>

<svg xmlns="http://www.w3.org/2000/svg" height="40" width="40"><path d="M6.708 11.042 5.5 9.833Q4.833 9.208 4.833 8.313Q4.833 7.417 5.458 6.792Q6.083 6.125 7 6.125Q7.917 6.125 8.542 6.75L9.75 7.958Q10.375 8.583 10.396 9.479Q10.417 10.375 9.75 11Q9.083 11.667 8.188 11.646Q7.292 11.625 6.708 11.042ZM20 7.833Q19.083 7.833 18.458 7.188Q17.833 6.542 17.833 5.625V3.917Q17.833 3.042 18.458 2.375Q19.083 1.708 20 1.708Q20.917 1.708 21.542 2.375Q22.167 3.042 22.167 3.917V5.625Q22.167 6.542 21.542 7.188Q20.917 7.833 20 7.833ZM30.292 11.042Q29.708 10.417 29.667 9.521Q29.625 8.625 30.25 8L31.458 6.75Q32.083 6.167 33.021 6.167Q33.958 6.167 34.542 6.792Q35.167 7.458 35.167 8.333Q35.167 9.208 34.542 9.875L33.375 11.083Q32.75 11.667 31.833 11.667Q30.917 11.667 30.292 11.042ZM17.792 38.667Q15.958 38.667 14.688 37.396Q13.417 36.125 13.417 34.292V29.417L9.708 25.667Q9.125 25.083 8.771 24.271Q8.417 23.458 8.417 22.583V16.458Q8.417 15.542 9.062 14.896Q9.708 14.25 10.583 14.25H29.417Q30.292 14.25 30.958 14.896Q31.625 15.542 31.625 16.458V22.583Q31.625 23.458 31.25 24.271Q30.875 25.083 30.292 25.667L26.625 29.417V34.292Q26.625 36.125 25.333 37.396Q24.042 38.667 22.208 38.667ZM17.792 34.292H22.208Q22.208 34.292 22.208 34.292Q22.208 34.292 22.208 34.292V27.542L27.208 22.542Q27.208 22.542 27.208 22.542Q27.208 22.542 27.208 22.542V18.208H12.792V22.542Q12.792 22.542 12.792 22.542Q12.792 22.542 12.792 22.542L17.792 27.542V34.292Q17.792 34.292 17.792 34.292Q17.792 34.292 17.792 34.292ZM20 26.25Q20 26.25 20 26.25Q20 26.25 20 26.25Q20 26.25 20 26.25Q20 26.25 20 26.25Q20 26.25 20 26.25Q20 26.25 20 26.25Q20 26.25 20 26.25Q20 26.25 20 26.25Z"/></svg>
